actions/24/filename-initial-amarok.svg

<?xml version="1.0" encoding="UTF-8" standalone="no"?>
<svg
   width="24"
   height="24"
   viewBox="0 0 24 24"
   version="1.1"
   id="svg7"
   sodipodi:docname="filename-initial-amarok.svg"
   inkscape:version="1.1.2 (0a00cf5339, 2022-02-04)"
   xmlns:inkscape="http://www.inkscape.org/namespaces/inkscape"
   xmlns:sodipodi="http://sodipodi.sourceforge.net/DTD/sodipodi-0.dtd"
   xmlns="http://www.w3.org/2000/svg"
   xmlns:svg="http://www.w3.org/2000/svg">
  <sodipodi:namedview
     id="namedview9"
     pagecolor="#000000"
     bordercolor="#666666"
     borderopacity="1.0"
     inkscape:pageshadow="2"
     inkscape:pageopacity="0"
     inkscape:pagecheckerboard="0"
     showgrid="false"
     inkscape:zoom="28.416667"
     inkscape:cx="11.982405"
     inkscape:cy="11.964809"
     inkscape:window-width="1596"
     inkscape:window-height="967"
     inkscape:window-x="0"
     inkscape:window-y="29"
     inkscape:window-maximized="1"
     inkscape:current-layer="svg7" />
  <defs
     id="defs3">
    <style
       id="current-color-scheme"
       type="text/css">
   .ColorScheme-Text { color:#eeeeec; } .ColorScheme-Highlight { color:#367bf0; } .ColorScheme-NeutralText { color:#ffcc44; } .ColorScheme-PositiveText { color:#3db47e; } .ColorScheme-NegativeText { color:#dd4747; }
  </style>
  </defs>
  <path
     style="fill:currentColor"
     class="ColorScheme-Text"
     d="M 3.890625,2 C 3.4451054,1.9999592 3.0532818,2.2946233 2.9296875,2.7226562 L 0.04296875,12.722656 C -0.14152978,13.362112 0.33836617,14.000023 1.0039062,14 h 1.1660157 c 0.448982,-3.24e-4 0.8427201,-0.299821 0.9628906,-0.732422 L 3.7636719,11 H 5.2441406 L 5.875,13.267578 C 5.9951705,13.700179 6.3889086,13.999676 6.8378906,14 h 1.1660156 c 0.175608,-2.45e-4 0.3480557,-0.04673 0.5,-0.134766 0.1519443,0.08804 0.324392,0.134521 0.5,0.134766 h 0.9999998 c 0.242871,2.19e-4 0.477523,-0.08795 0.660156,-0.248047 0.427211,0.15285 0.876761,0.247417 1.337891,0.248047 h 0.002 c 2.1973,0 4,-1.8027 4,-4 0,-2.1973 -1.8027,-4 -4,-4 h -0.002 c -0.34402,4.7e-4 -0.670237,0.099297 -0.998047,0.1855469 V 3 c -5.5e-5,-0.5522619 -0.447738,-0.9999448 -1,-1 H 9.0039062 c -0.5522619,5.52e-5 -0.9999448,0.4477381 -1,1 v 4.8673124 0 L 7.6793774,7.8608015 6.3261719,2.7441406 C 6.2100385,2.30549 5.8131385,1.9999973 5.359375,2 Z M 4.355519,5.7581729 4.7303205,5.740116 5.37654,8.46328 5.0152455,9 V 9 H 4.0314268 V 9 L 3.6443674,8.4653077 Z M 12.003906,8 c 1.104569,0 2,0.8954305 2,2 0,1.104569 -0.895431,2 -2,2 -1.104569,0 -2,-0.895431 -2,-2 0,-1.1045695 0.895431,-2 2,-2 z"
     transform="translate(4,4)"
     id="path5"
     sodipodi:nodetypes="cccccccccccccccssssscccccccccccccccccccccsssss" />
</svg>

<svg xmlns="http://www.w3.org/2000/svg" width="24" height="24" viewBox="0 0 24 24">
 <defs>
  <style id="current-color-scheme" type="text/css">
   .ColorScheme-Text { color:#eeeeec; } .ColorScheme-Highlight { color:#367bf0; } .ColorScheme-NeutralText { color:#ffcc44; } .ColorScheme-PositiveText { color:#3db47e; } .ColorScheme-NegativeText { color:#dd4747; }
  </style>
 </defs>
 <path style="fill:currentColor" class="ColorScheme-Text" d="M 3.890625 2 A 1.0001 1.0001 0 0 0 2.9296875 2.7226562 L 0.04296875 12.722656 A 1.0001 1.0001 0 0 0 1.0039062 14 L 2.1699219 14 A 1.0001 1.0001 0 0 0 3.1328125 13.267578 L 3.7636719 11 L 5.2441406 11 L 5.875 13.267578 A 1.0001 1.0001 0 0 0 6.8378906 14 L 8.0039062 14 A 1.0001 1.0001 0 0 0 8.5039062 13.865234 A 1.0001 1.0001 0 0 0 9.0039062 14 L 10.003906 14 A 1.0001 1.0001 0 0 0 10.664062 13.751953 C 11.091273 13.904803 11.540823 13.99937 12.001953 14 A 1.0001 1.0001 0 0 0 12.003906 14 C 14.201206 14 16.003906 12.1973 16.003906 10 C 16.003906 7.8027 14.201206 6 12.003906 6 A 1.0001 1.0001 0 0 0 12.001953 6 C 11.657933 6.00047 11.331716 6.0992969 11.003906 6.1855469 L 11.003906 3 A 1.0001 1.0001 0 0 0 10.003906 2 L 9.0039062 2 A 1.0001 1.0001 0 0 0 8.0039062 3 L 8.0039062 9.0878906 L 6.3261719 2.7441406 A 1.0001 1.0001 0 0 0 5.359375 2 L 3.890625 2 z M 4.5546875 5 L 5.5039062 9 L 3.5039062 9 L 4.5546875 5 z M 12.003906 8 A 2 2 0 0 1 14.003906 10 A 2 2 0 0 1 12.003906 12 A 2 2 0 0 1 10.003906 10 A 2 2 0 0 1 12.003906 8 z" transform="translate(4 4)"/>
</svg>
